icons/fill-new-other-safe-shield-protect-check.svg

<svg xmlns="http://www.w3.org/2000/svg" width="32px" height="32px" viewBox="0 0 32 32" version="1.1">
    <title>fill-new-other-safe-shield-protect-check</title>
    <g id="fill-new-other-safe-shield-protect-check" stroke-width="1" fill-rule="evenodd">
        <path d="M15.7574644,1.56063391 C15.9167044,1.52082391 16.0832956,1.52082391 16.2425356,1.56063391 L27.2425356,4.31063391 C27.6877026,4.42192566 28,4.82190876 28,5.28077641 L28,18.5 C28,23.4249268 24.1192154,27.3796574 16.3576463,30.3641918 C16.1274359,30.4528869 15.8725641,30.4528869 15.642192,30.3646138 L15.2228441,30.2004369 C7.74094804,27.2355283 4,23.3353826 4,18.5 L4,5.28077641 C4,4.82190876 4.31229737,4.42192566 4.75746437,4.31063391 L15.7574644,1.56063391 Z M22.7071068,10.7928932 C22.3165825,10.4023689 21.6834175,10.4023689 21.2928932,10.7928932 L14.5,17.585 L11.2071068,14.2928932 C10.8165825,13.9023689 10.1834175,13.9023689 9.79289322,14.2928932 C9.40236893,14.6834175 9.40236893,15.3165825 9.79289322,15.7071068 L13.7928932,19.7071068 C14.1834175,20.0976311 14.8165825,20.0976311 15.2071068,19.7071068 L22.7071068,12.2071068 C23.0976311,11.8165825 23.0976311,11.1834175 22.7071068,10.7928932 Z" id="&#24418;&#29366;" />
    </g>
</svg>

<svg xmlns="http://www.w3.org/2000/svg" viewBox="0 0 32 32"><path fill="currentColor" d="M15.757 1.56a1 1 0 0 1 .486 0l11 2.75a1 1 0 0 1 .757.97V18.5c0 4.925-3.88 8.88-11.642 11.864a.997.997 0 0 1-.716 0l-.42-.164C7.742 27.236 4 23.335 4 18.5V5.28a1 1 0 0 1 .757-.97zm6.95 9.233a1 1 0 0 0-1.414 0L14.5 17.585l-3.293-3.292a1 1 0 1 0-1.414 1.414l4 4a1 1 0 0 0 1.414 0l7.5-7.5a1 1 0 0 0 0-1.414"/></svg>
